static/images/mobile/copyright/wikipedia-wordmark-gag.svg

<?xml version="1.0" encoding="UTF-8"?>
<svg width="120px" height="19px" viewBox="0 0 120 19" version="1.1" xmlns="http://www.w3.org/2000/svg" xmlns:xlink="http://www.w3.org/1999/xlink">
    <title>gag-wordmark</title>
    <g id="Page-1" stroke="none" stroke-width="1" fill="none" fill-rule="evenodd">
        <path d="M13.1773722,2.53201573 L8.93012,14.456993 L8.82121609,14.456993 L4.51951195,2.3414339 C4.22002622,1.52465463 4.43783402,1.30684683 5.71745488,1.14349098 L6.18029646,1.08903902 C6.31642634,1.06181305 6.39810427,1.0073611 6.39810427,0.871231219 L6.39810427,0.353937683 L6.34365231,0.299485732 C6.34365231,0.299485732 4.19279923,0.353937683 3.2398911,0.353937683 C2.17807906,0.353937683 0.0544519512,0.299485732 0.0544519512,0.299485732 L0,0.353937683 L0,0.871231219 C0,1.0073611 0.108904003,1.08903902 0.217807805,1.08903902 C1.63355712,1.2251689 1.87859272,1.63355854 2.28698195,2.77704951 L7.56882122,17.6152062 C7.70495109,18.0235958 7.9227589,18.2414037 8.19501865,18.2414037 C8.49450439,18.2414037 8.68508622,18.0235958 8.84844207,17.6152062 L14.3753151,2.88595341 C14.7564788,1.90581829 15.2193214,1.17071695 16.716749,1.08903902 C16.8528789,1.08903902 16.9345568,1.0073611 16.9345568,0.871231219 L16.9345568,0.353937683 L16.8801049,0.299485732 C16.8801049,0.299485732 15.3282233,0.353937683 14.3753151,0.353937683 C13.3135031,0.353937683 11.3804578,0.299485732 11.3804578,0.299485732 L11.3260058,0.353937683 L11.3260058,0.871231219 C11.3260058,1.0073611 11.4349098,1.08903902 11.5438137,1.08903902 L11.9794293,1.116265 C12.9867894,1.17071695 13.5585358,1.49742866 13.1773722,2.53201573 M18.9296481,1.66078451 C18.9296481,2.36865988 19.5013936,2.94040536 20.2364949,2.94040536 C20.9443693,2.94040536 21.5433417,2.36865988 21.5433417,1.66078451 C21.5433417,0.92568317 20.9443693,0.353937683 20.2364949,0.353937683 C19.5013936,0.353937683 18.9296481,0.92568317 18.9296481,1.66078451 M21.3799859,7.0243017 C21.3799859,6.47978219 21.6794716,6.26197439 22.5234769,6.18029646 L23.0952223,6.12584451 C23.2041262,6.12584451 23.2585782,6.07139256 23.2585782,5.98971463 L23.2585782,5.39074317 L23.2313522,5.33629122 C23.2313522,5.33629122 21.1349511,5.39074317 20.3998508,5.39074317 C19.5558455,5.39074317 17.4049934,5.33629122 17.4049934,5.33629122 L17.3777675,5.39074317 L17.3777675,6.01694061 C17.3777675,6.09861853 17.4594454,6.12584451 17.5683493,6.12584451 L18.1128688,6.18029646 C18.956873,6.26197439 19.2835858,6.42533024 19.2835858,7.0243017 L19.2835858,16.0905516 C19.2835858,16.6078451 19.011325,17.0434607 18.1128688,17.1251387 L17.5683493,17.1795906 C17.4594454,17.1795906 17.3777675,17.2340426 17.3777675,17.3429465 L17.3777675,17.9146919 L17.4322194,17.9691439 C17.4322194,17.9691439 19.5558455,17.9146919 20.3181728,17.9146919 C21.1621771,17.9146919 23.2313522,17.9691439 23.2313522,17.9691439 L23.2585782,17.9146919 L23.2585782,17.3429465 C23.2585782,17.2340426 23.1769003,17.1795906 23.0952223,17.1795906 L22.5234769,17.1251387 C21.6522456,17.0434607 21.3799859,16.689523 21.3799859,16.0905516 L21.3799859,7.0243017 M28.5807684,12.0611072 C29.1797388,12.0611072 29.6153555,12.1972371 30.0237451,12.7417566 L33.0458284,16.4989412 C33.426991,16.9345568 33.454218,17.2340426 33.454218,17.5879802 L33.454218,17.9146919 L33.481444,17.9419179 C33.481444,17.9419179 34.4615791,17.9146919 35.1422285,17.9146919 C35.9045548,17.9146919 37.3475325,17.9419179 37.3475325,17.9419179 L37.4292104,17.9146919 L37.4292104,17.3429465 C37.4292104,17.2612685 37.3203065,17.2068166 37.2386286,17.1795906 L37.1024987,17.1523646 C36.5579792,17.0434607 35.9045548,16.8801049 35.5778441,16.4989412 L31.4667218,11.5438137 C31.3305919,11.3804578 31.221688,11.2443279 31.221688,11.0809721 C31.221688,10.8631643 31.3850439,10.5636785 31.8478854,10.073611 L34.1893194,7.37823939 C35.1694535,6.26197439 35.9045568,6.20752244 36.9663689,6.12584451 C37.1024987,6.12584451 37.1841767,6.07139256 37.1841767,5.98971463 L37.1841767,5.36351719 L37.1024987,5.33629122 C37.1024987,5.33629122 35.9045548,5.39074317 35.1966804,5.39074317 C34.4071272,5.39074317 32.2018231,5.33629122 32.2018231,5.33629122 L32.1745972,5.36351719 L32.1745972,5.98971463 C32.1745972,6.07139256 32.2290491,6.09861853 32.337953,6.12584451 C32.8824715,6.20752244 33.1275063,6.45255622 33.1275063,6.67036402 C33.1275063,7.18765756 32.2835001,8.19501865 31.194462,9.39296158 C29.9965201,10.6725824 29.4792246,11.135424 28.5807684,11.135424 L28.5807684,7.0243017 C28.5807684,6.47978219 28.8802541,6.34365231 29.7242594,6.18029646 L30.0237451,6.12584451 C30.132649,6.09861853 30.1871009,6.07139256 30.1871009,5.98971463 L30.1871009,5.39074317 L30.159875,5.33629122 C30.159875,5.33629122 28.4446375,5.39074317 27.6823112,5.39074317 C26.8383059,5.39074317 24.6057759,5.33629122 24.6057759,5.33629122 L24.57855,5.39074317 L24.57855,6.01694061 C24.57855,6.09861853 24.6602279,6.12584451 24.7691318,6.12584451 L25.3136513,6.18029646 C26.1848815,6.26197439 26.4843683,6.42533024 26.4843683,7.0243017 L26.4843683,16.0905516 C26.4843683,16.6078451 26.1304296,17.0434607 25.3136513,17.1251387 L24.7691318,17.1795906 C24.6602279,17.1795906 24.57855,17.2340426 24.57855,17.3429465 L24.57855,17.9146919 L24.6330019,17.9691439 C24.6330019,17.9691439 26.8655319,17.9146919 27.6278592,17.9146919 C28.4446375,17.9146919 30.159875,17.9691439 30.159875,17.9691439 L30.1871009,17.9146919 L30.1871009,17.3429465 C30.1871009,17.2340426 30.105423,17.2068166 30.0237451,17.1795906 L29.7242594,17.1251387 C28.9347061,16.9890088 28.5807684,16.689523 28.5807684,16.0905516 L28.5807684,12.0611072 M39.9781779,1.66078451 C39.9781779,2.36865988 40.5499234,2.94040536 41.2850247,2.94040536 C41.9928991,2.94040536 42.5918715,2.36865988 42.5918715,1.66078451 C42.5918715,0.92568317 41.9928991,0.353937683 41.2850247,0.353937683 C40.5499234,0.353937683 39.9781779,0.92568317 39.9781779,1.66078451 M42.4285157,7.0243017 C42.4285157,6.47978219 42.7280014,6.26197439 43.5720067,6.18029646 L44.1437521,6.12584451 C44.252656,6.12584451 44.307108,6.07139256 44.307108,5.98971463 L44.307108,5.39074317 L44.279882,5.33629122 C44.279882,5.33629122 42.1834809,5.39074317 41.4483806,5.39074317 C40.6043753,5.39074317 38.4535232,5.33629122 38.4535232,5.33629122 L38.4262973,5.39074317 L38.4262973,6.01694061 C38.4262973,6.09861853 38.5079752,6.12584451 38.6168791,6.12584451 L39.1613986,6.18029646 C40.0054028,6.26197439 40.3321156,6.42533024 40.3321156,7.0243017 L40.3321156,16.0905516 C40.3321156,16.6078451 40.0598548,17.0434607 39.1613986,17.1251387 L38.6168791,17.1795906 C38.5079752,17.1795906 38.4262973,17.2340426 38.4262973,17.3429465 L38.4262973,17.9146919 L38.4807492,17.9691439 C38.4807492,17.9691439 40.6043753,17.9146919 41.3667026,17.9146919 C42.2107069,17.9146919 44.279882,17.9691439 44.279882,17.9691439 L44.307108,17.9146919 L44.307108,17.3429465 C44.307108,17.2340426 44.2254301,17.1795906 44.1437521,17.1795906 L43.5720067,17.1251387 C42.7007754,17.0434607 42.4285157,16.689523 42.4285157,16.0905516 L42.4285157,7.0243017 M49.5748482,7.07875366 C49.5748482,6.37087829 49.901561,6.12584451 51.2084068,6.12584451 C52.7058334,6.12584451 53.7676485,6.64313805 53.7676485,8.98457195 C53.7676485,11.0809721 52.9780932,12.0611072 51.3445367,12.0611072 C50.8000171,12.0611072 50.1193667,12.0338812 49.5748482,11.8160734 L49.5748482,7.07875366 M47.4784481,16.2266815 C47.4784481,16.743975 47.2061874,16.9890088 46.3621831,17.0979127 L45.7904376,17.1795906 C45.6815337,17.2068166 45.6270818,17.2340426 45.6270818,17.3429465 L45.6270818,17.9146919 L45.6543078,17.9691439 C45.6543078,17.9691439 47.6962559,17.9146919 48.4585832,17.9146919 C49.3025875,17.9146919 51.4806665,17.9691439 51.4806665,17.9691439 L51.5078925,17.9146919 L51.5078925,17.3429465 C51.5078925,17.2340426 51.4262146,17.2068166 51.3173107,17.1795906 L50.7727912,17.0979127 C49.9015599,16.9617828 49.5748482,16.8256529 49.5748482,16.2266815 L49.5748482,12.5784007 C50.0649148,12.7962085 50.6094353,12.8506605 51.2900847,12.8506605 C55.1561692,12.8506605 55.9457265,10.2914188 55.9457265,8.65786024 C55.9457265,7.24210951 55.2378471,5.33629122 51.3717626,5.33629122 C50.3644025,5.33629122 49.2753615,5.39074317 48.5130352,5.39074317 C47.7234819,5.39074317 46.1171483,5.33629122 45.7087597,5.33629122 L45.6543078,5.36351719 L45.6543078,5.98971463 C45.6543078,6.04416658 45.6815337,6.12584451 45.8448896,6.12584451 C47.1245084,6.20752244 47.4784481,6.23474841 47.4784481,7.07875366 L47.4784481,16.2266815 M64.5690642,17.9146919 C65.3858425,17.9146919 66.9921761,17.9691439 66.9921761,17.9691439 L67.046628,17.9146919 L67.5911475,14.7837047 L66.9104981,14.7020268 C66.5837864,16.1177776 65.8214571,16.9890088 64.4329344,16.9890088 L61.8464667,16.9890088 C61.3563991,16.9890088 61.0569134,16.4717152 61.0569134,15.9544217 L61.0569134,11.7888474 L63.0988616,11.7888474 C63.8067359,11.7888474 64.0517707,12.0883332 64.1606746,12.6328527 L64.2968045,13.2318241 C64.2968045,13.3135021 64.3512564,13.367954 64.4873863,13.367954 L64.9502279,13.367954 L65.0046798,13.3135021 C64.9502279,12.6873046 64.841324,12.1155591 64.841324,11.4349098 C64.841324,10.7814863 64.9502279,10.019159 65.0046798,9.42018756 C65.0046798,9.36573561 65.0046798,9.33850963 64.9502279,9.33850963 L64.4873863,9.33850963 C64.3784824,9.33850963 64.3240305,9.39296158 64.3240305,9.47463951 L64.1606746,10.046385 C64.0517707,10.5909045 63.8611879,10.9176162 63.0988616,10.9176162 L61.0569134,10.9176162 L61.0569134,6.96984975 C61.0569134,6.50700817 61.3291731,6.31642634 61.8464667,6.31642634 L64.0245447,6.31642634 C65.7670051,6.31642634 66.2843007,7.75940305 66.5837864,8.76676414 L67.2644358,8.65786024 C67.073854,7.62327317 66.8832722,6.56146012 66.8560462,5.39074317 L66.8015942,5.33629122 C66.8015942,5.33629122 64.868549,5.39074317 64.0517707,5.39074317 L60.0495523,5.39074317 C59.232773,5.39074317 57.1091469,5.33629122 57.1091469,5.33629122 L57.0819209,5.39074317 L57.0819209,6.01694061 C57.0819209,6.04416658 57.0819209,6.09861853 57.2452768,6.12584451 L57.8714742,6.18029646 C58.6338005,6.23474841 58.9605133,6.34365231 58.9605133,6.96984975 L58.9605133,15.9544217 C58.9605133,16.4989412 58.7154785,17.0434607 57.8714742,17.1251387 L57.2452768,17.1795906 C57.1091469,17.1795906 57.0819209,17.2612685 57.0819209,17.3157205 L57.0819209,17.9146919 L57.1091469,17.9691439 C57.1091469,17.9691439 58.9877392,17.9146919 59.8045185,17.9146919 L64.5690642,17.9146919 M69.0153413,17.3429465 L69.0153413,17.9146919 L69.0425673,17.9691439 C69.0425673,17.9691439 71.1117425,17.9146919 71.9285207,17.9146919 C72.772525,17.9146919 73.7254371,17.9691439 75.9035132,17.9691439 C78.9255934,17.9691439 82.3016174,16.5533932 82.3016174,11.7888474 C82.3016174,8.16779268 80.0690834,5.33629122 75.5223495,5.33629122 C74.8144751,5.33629122 72.4458143,5.39074317 71.9285207,5.39074317 C71.4384542,5.39074317 69.0425673,5.33629122 69.0425673,5.33629122 L69.0153413,5.39074317 L69.0153413,5.98971463 C69.0153413,6.07139256 69.0970193,6.12584451 69.2059232,6.12584451 L69.8048946,6.18029646 C70.7033508,6.26197439 70.8939336,6.26197439 70.8939336,6.96984975 L70.8939336,15.9544217 C70.8939336,16.7984269 70.6216729,17.0434607 69.8048946,17.1251387 L69.1786972,17.1795906 C69.0697933,17.1795906 69.0153413,17.2612685 69.0153413,17.3429465 M72.9903338,15.9544217 L72.9903338,6.96984975 C72.9903338,6.28920036 73.6709842,6.12584451 74.7327962,6.12584451 C79.3067561,6.12584451 79.9329575,9.42018756 79.9329575,12.251689 C79.9329575,16.0633256 78.244944,17.1795906 75.2500897,17.1795906 C73.1809176,17.1795906 72.9903338,16.716749 72.9903338,15.9544217 M85.4253081,1.66078451 C85.4253081,2.36865988 85.9970546,2.94040536 86.7321549,2.94040536 C87.4400292,2.94040536 88.0390017,2.36865988 88.0390017,1.66078451 C88.0390017,0.92568317 87.4400292,0.353937683 86.7321549,0.353937683 C85.9970546,0.353937683 85.4253081,0.92568317 85.4253081,1.66078451 M87.8756459,7.0243017 C87.8756459,6.47978219 88.1751326,6.26197439 89.0191368,6.18029646 L89.5908823,6.12584451 C89.6997862,6.12584451 89.7542382,6.07139256 89.7542382,5.98971463 L89.7542382,5.39074317 L89.7270122,5.33629122 C89.7270122,5.33629122 87.6306111,5.39074317 86.8955107,5.39074317 C86.0515065,5.39074317 83.9006534,5.33629122 83.9006534,5.33629122 L83.8734274,5.39074317 L83.8734274,6.01694061 C83.8734274,6.09861853 83.9551054,6.12584451 84.0640093,6.12584451 L84.6085288,6.18029646 C85.452533,6.26197439 85.7792457,6.42533024 85.7792457,7.0243017 L85.7792457,16.0905516 C85.7792457,16.6078451 85.506985,17.0434607 84.6085288,17.1251387 L84.0640093,17.1795906 C83.9551054,17.1795906 83.8734274,17.2340426 83.8734274,17.3429465 L83.8734274,17.9146919 L83.9278794,17.9691439 C83.9278794,17.9691439 86.0515065,17.9146919 86.8138328,17.9146919 C87.657837,17.9146919 89.7270122,17.9691439 89.7270122,17.9691439 L89.7542382,17.9146919 L89.7542382,17.3429465 C89.7542382,17.2340426 89.6725603,17.1795906 89.5908823,17.1795906 L89.0191368,17.1251387 C88.1479066,17.0434607 87.8756459,16.689523 87.8756459,16.0905516 L87.8756459,7.0243017 M90.5841484,5.33629122 C90.8291822,5.33629122 92.5171927,5.39074317 92.8166784,5.39074317 L92.8554474,5.39052088 C93.1881131,5.38787728 95.2569856,5.36208425 95.566502,5.33629122 L95.5937279,5.36351719 L95.5937279,5.98971463 C95.5937279,6.04416658 95.539276,6.12584451 95.4575981,6.12584451 L94.8586266,6.18029646 C94.2052032,6.23474841 94.3141071,6.47978219 94.5863668,6.9153978 L97.3361904,11.4076838 L97.3906423,11.4076838 L99.9226581,6.9153978 C100.276596,6.26197439 100.276596,6.23474841 99.6231723,6.18029646 L98.9969749,6.12584451 C98.915297,6.12584451 98.888071,6.04416658 98.888071,5.98971463 L98.888071,5.36351719 L98.9425229,5.33629122 C99.070874,5.33629122 99.424256,5.3462926 99.8076422,5.35772274 L100.193807,5.36931164 C100.575526,5.38074179 100.92224,5.39074317 101.038923,5.39074317 C101.229505,5.39074317 102.4819,5.36351719 102.890289,5.33629122 L102.917515,5.39074317 L102.917515,5.98971463 C102.917515,6.04416658 102.917515,6.09861853 102.726934,6.12584451 L102.264092,6.18029646 C101.392861,6.28920036 101.256731,6.45255622 100.848341,7.18765756 L97.8534839,12.4694968 L97.8534839,16.2539074 C97.8534839,16.8528789 98.1529696,17.0434607 98.9969749,17.1251387 L99.5687204,17.1795906 C99.6776243,17.1795906 99.7593022,17.2612685 99.7593022,17.3429465 L99.7593022,17.9146919 L99.7048503,17.9691439 C99.7048503,17.9691439 97.6356761,17.9146919 96.7916709,17.9146919 C96.0293436,17.9146919 93.9057175,17.9691439 93.9057175,17.9691439 L93.8512655,17.9146919 L93.8512655,17.3429465 C93.8512655,17.2612685 93.9329434,17.1795906 94.0418473,17.1795906 L94.5863668,17.1251387 C95.4303721,17.0434607 95.7570838,16.7984269 95.7570838,16.2539074 L95.7570838,12.5784007 L92.3266109,6.94262378 C91.9726732,6.37087829 91.5370566,6.20752244 90.7475043,6.12584451 C90.6658264,6.12584451 90.5296965,6.09861853 90.5296965,5.98971463 L90.5296965,5.39074317 Z M111.097106,-1.77635684e-15 C111.47827,-1.77635684e-15 111.6144,0.272259756 111.832207,0.816779268 L117.413532,15.573258 C117.794696,16.6350711 118.339215,17.0434607 119.428255,17.1523646 L119.72774,17.1795906 C119.86387,17.1795906 120,17.2612685 120,17.3973984 L120,17.9146919 L119.918322,17.9691439 C119.918322,17.9691439 117.821922,17.9146919 116.760109,17.9146919 L116.637807,17.9149463 C115.598017,17.918961 113.139054,17.9691439 113.139054,17.9691439 L113.111828,17.9146919 L113.111828,17.3973984 C113.111828,17.2612685 113.16628,17.1795906 113.30241,17.1795906 L114.064737,17.1251387 C115.099324,17.0434607 115.480488,16.716749 115.208228,15.9544217 L113.547444,11.3532318 L107.884441,11.3532318 C107.231017,11.3532318 107.067662,11.4621357 106.931532,11.8160734 L105.352425,15.7638399 C105.080165,16.4444893 105.434103,17.0434607 106.441464,17.1251387 L107.231017,17.1795906 C107.339921,17.1795906 107.448825,17.2612685 107.448825,17.3973984 L107.448825,17.9146919 L107.394373,17.9691439 C107.394373,17.9691439 104.426742,17.9146919 103.773319,17.9146919 C103.549779,17.9146919 103.223067,17.9201221 102.880637,17.9275527 L102.536206,17.9355232 C101.907019,17.9508927 101.322981,17.9691439 101.322981,17.9691439 L101.268529,17.9146919 L101.268529,17.3973984 C101.268529,17.2612685 101.350207,17.1795906 101.486337,17.1795906 C102.68428,17.0979127 103.364929,16.8801049 104.127256,15.1376424 L110.171423,0.980135122 C110.470909,0.272259756 110.688716,-1.77635684e-15 111.097106,-1.77635684e-15 Z M110.470909,2.94040536 L110.416457,2.94040536 L107.693859,9.85580317 C107.584955,10.1280629 107.775537,10.2097408 108.374508,10.2097408 L113.111828,10.2097408 L110.470909,2.94040536 Z" id="gag-wordmark" fill="#000000" fill-rule="nonzero"></path>
    </g>
</svg>

<svg xmlns="http://www.w3.org/2000/svg" width="120" height="19"><path fill="#000" fill-rule="nonzero" d="M13.177 2.532 8.93 14.457h-.109L4.52 2.341c-.3-.816-.082-1.034 1.197-1.198l.463-.054c.136-.027.218-.082.218-.218V.354L6.344.299S4.193.354 3.24.354C2.178.354.054.299.054.299L0 .354V.87c0 .136.109.218.218.218 1.416.136 1.66.545 2.069 1.688l5.282 14.838c.136.409.354.626.626.626.3 0 .49-.217.653-.626l5.527-14.729c.381-.98.844-1.715 2.342-1.797.136 0 .218-.082.218-.218V.354L16.88.299s-1.552.055-2.505.055c-1.061 0-2.995-.055-2.995-.055l-.054.055V.87c0 .136.109.218.218.218l.435.027c1.008.055 1.58.381 1.198 1.416m5.753-.871c0 .708.571 1.28 1.306 1.28.708 0 1.307-.572 1.307-1.28 0-.735-.599-1.307-1.307-1.307A1.29 1.29 0 0 0 18.93 1.66m2.45 5.363c0-.544.3-.762 1.143-.844l.572-.054c.11 0 .164-.055.164-.136v-.6l-.028-.054s-2.096.055-2.831.055c-.844 0-2.995-.055-2.995-.055l-.027.055v.626c0 .082.081.109.19.109l.545.054c.844.082 1.17.245 1.17.844v9.067c0 .517-.272.952-1.17 1.034l-.545.055c-.109 0-.19.054-.19.163v.572l.054.054s2.124-.054 2.886-.054c.844 0 2.913.054 2.913.054l.028-.054v-.572c0-.109-.082-.163-.164-.163l-.572-.055c-.87-.082-1.143-.435-1.143-1.034V7.024m7.2 5.037c.6 0 1.035.136 1.444.68l3.022 3.758c.381.436.408.735.408 1.089v.327l.027.027s.98-.027 1.661-.027c.763 0 2.206.027 2.206.027l.081-.027v-.572c0-.082-.109-.136-.19-.163l-.137-.028c-.544-.109-1.197-.272-1.524-.653l-4.111-4.955c-.136-.164-.245-.3-.245-.463 0-.218.163-.517.626-1.007l2.341-2.696c.98-1.116 1.716-1.17 2.777-1.252.136 0 .218-.055.218-.136v-.626l-.082-.028s-1.197.055-1.905.055c-.79 0-2.995-.055-2.995-.055l-.027.028v.626c0 .081.054.109.163.136.544.082.79.327.79.544 0 .518-.844 1.525-1.934 2.723-1.197 1.28-1.715 1.742-2.613 1.742v-4.11c0-.545.3-.681 1.143-.845l.3-.054c.109-.027.163-.055.163-.136v-.6l-.027-.054s-1.715.055-2.478.055c-.844 0-3.076-.055-3.076-.055l-.027.055v.626c0 .082.081.109.19.109l.545.054c.87.082 1.17.245 1.17.844v9.067c0 .517-.354.952-1.17 1.034l-.545.055c-.109 0-.19.054-.19.163v.572l.054.054s2.233-.054 2.995-.054c.817 0 2.532.054 2.532.054l.027-.054v-.572c0-.109-.082-.136-.163-.163l-.3-.055c-.79-.136-1.143-.435-1.143-1.034v-4.03m11.397-10.4c0 .708.572 1.28 1.307 1.28.708 0 1.307-.572 1.307-1.28 0-.735-.6-1.307-1.307-1.307a1.29 1.29 0 0 0-1.307 1.307m2.45 5.363c0-.544.3-.762 1.144-.844l.572-.054c.109 0 .163-.055.163-.136v-.6l-.027-.054s-2.097.055-2.832.055c-.844 0-2.994-.055-2.994-.055l-.028.055v.626c0 .082.082.109.19.109l.545.054c.844.082 1.171.245 1.171.844v9.067c0 .517-.272.952-1.17 1.034l-.545.055c-.109 0-.19.054-.19.163v.572l.054.054s2.123-.054 2.886-.054c.844 0 2.913.054 2.913.054l.027-.054v-.572c0-.109-.082-.163-.163-.163l-.572-.055c-.871-.082-1.143-.435-1.143-1.034V7.024m7.146.055c0-.708.327-.953 1.633-.953 1.498 0 2.56.517 2.56 2.859 0 2.096-.79 3.076-2.423 3.076-.545 0-1.226-.027-1.77-.245V7.08m-2.097 9.148c0 .517-.272.762-1.116.87l-.572.083c-.108.027-.163.054-.163.163v.572l.027.054s2.042-.054 2.805-.054c.844 0 3.022.054 3.022.054l.027-.054v-.572c0-.109-.082-.136-.19-.163l-.545-.082c-.871-.136-1.198-.272-1.198-.871v-3.649c.49.218 1.034.273 1.715.273 3.866 0 4.656-2.56 4.656-4.193 0-1.416-.708-3.322-4.574-3.322-1.008 0-2.097.055-2.859.055-.79 0-2.396-.055-2.804-.055l-.055.028v.626c0 .054.028.136.19.136 1.28.082 1.634.109 1.634.953v9.148m17.091 1.688c.817 0 2.423.054 2.423.054l.055-.054.544-3.131-.68-.082c-.327 1.416-1.09 2.287-2.478 2.287h-2.587c-.49 0-.79-.517-.79-1.035V11.79H63.1c.708 0 .953.3 1.062.844l.136.599c0 .082.054.136.19.136h.463l.055-.054c-.055-.627-.164-1.198-.164-1.88 0-.653.11-1.415.164-2.014 0-.054 0-.081-.055-.081h-.463c-.109 0-.163.054-.163.136l-.163.571c-.11.545-.3.872-1.062.872h-2.042V6.97c0-.463.272-.654.79-.654h2.178c1.742 0 2.26 1.443 2.559 2.45l.68-.108c-.19-1.035-.38-2.097-.408-3.267l-.054-.055s-1.933.055-2.75.055H60.05c-.817 0-2.94-.055-2.94-.055l-.028.055v.626c0 .027 0 .082.163.109l.626.054c.763.055 1.09.164 1.09.79v8.984c0 .545-.246 1.09-1.09 1.171l-.626.055c-.136 0-.163.081-.163.136v.599l.027.054s1.879-.054 2.696-.054h4.764m4.446-.572v.572l.028.054s2.069-.054 2.886-.054c.844 0 1.796.054 3.975.054 3.022 0 6.398-1.416 6.398-6.18 0-3.621-2.233-6.453-6.78-6.453-.708 0-3.076.055-3.593.055-.49 0-2.886-.055-2.886-.055l-.028.055v.599c0 .081.082.136.19.136l.6.054c.898.082 1.089.082 1.089.79v8.984c0 .844-.272 1.09-1.09 1.171l-.625.055c-.11 0-.164.081-.164.163m3.975-1.389V6.97c0-.68.681-.844 1.743-.844 4.574 0 5.2 3.294 5.2 6.126 0 3.811-1.688 4.928-4.683 4.928-2.07 0-2.26-.463-2.26-1.226M85.425 1.661c0 .708.572 1.28 1.307 1.28.708 0 1.307-.572 1.307-1.28 0-.735-.599-1.307-1.307-1.307a1.29 1.29 0 0 0-1.307 1.307m2.45 5.363c0-.544.3-.762 1.144-.844l.572-.054c.109 0 .163-.055.163-.136v-.6l-.027-.054s-2.096.055-2.831.055c-.844 0-2.995-.055-2.995-.055l-.028.055v.626c0 .082.082.109.191.109l.545.054c.844.082 1.17.245 1.17.844v9.067c0 .517-.272.952-1.17 1.034l-.545.055c-.109 0-.19.054-.19.163v.572l.054.054s2.124-.054 2.886-.054c.844 0 2.913.054 2.913.054l.027-.054v-.572c0-.109-.081-.163-.163-.163l-.572-.055c-.871-.082-1.143-.435-1.143-1.034V7.024m2.708-1.688c.245 0 1.933.055 2.233.055h.038c.333-.003 2.402-.029 2.712-.055l.027.028v.626c0 .054-.055.136-.136.136l-.6.054c-.653.055-.544.3-.272.735l2.75 4.493h.055l2.532-4.493c.354-.653.354-.68-.3-.735l-.626-.054c-.082 0-.109-.082-.109-.136v-.626l.055-.028c.128 0 .481.01.865.022l.386.011c.382.012.728.022.845.022.19 0 1.443-.027 1.851-.055l.028.055v.599c0 .054 0 .109-.191.136l-.463.054c-.871.11-1.007.273-1.416 1.008l-2.995 5.281v3.785c0 .599.3.79 1.144.871l.572.055c.109 0 .19.081.19.163v.572l-.054.054s-2.07-.054-2.913-.054c-.763 0-2.886.054-2.886.054l-.055-.054v-.572c0-.082.082-.163.19-.163l.545-.055c.844-.082 1.171-.327 1.171-.871v-3.676l-3.43-5.635c-.354-.572-.79-.735-1.58-.817-.081 0-.217-.027-.217-.136v-.6ZM111.097 0c.381 0 .517.272.735.817l5.582 14.756c.38 1.062.925 1.47 2.014 1.58l.3.027c.136 0 .272.081.272.217v.518l-.082.054s-2.096-.054-3.158-.054h-.122c-1.04.004-3.499.054-3.499.054l-.027-.054v-.518c0-.136.054-.217.19-.217l.763-.055c1.034-.082 1.415-.408 1.143-1.17l-1.66-4.602h-5.664c-.653 0-.816.11-.952.463l-1.58 3.948c-.272.68.082 1.28 1.09 1.361l.789.055c.109 0 .218.081.218.217v.518l-.055.054s-2.967-.054-3.62-.054c-.224 0-.55.005-.893.013l-.345.008c-.629.015-1.213.033-1.213.033l-.054-.054v-.518c0-.136.081-.217.217-.217 1.198-.082 1.879-.3 2.641-2.042L110.171.98c.3-.708.518-.98.926-.98Zm-.626 2.94h-.055l-2.722 6.916c-.109.272.082.354.68.354h4.738l-2.641-7.27Z"/></svg>
